img/svg/dislike.svg

<svg width="21" height="21" viewBox="0 0 21 21" fill="none" xmlns="http://www.w3.org/2000/svg">
<rect width="21" height="21" rx="10.5" fill="#EB5757"/>
<path d="M7.95689 6.00631L11.6011 6.55028C11.7775 6.5766 11.9405 6.66007 12.0657 6.78807C12.1908 6.91607 12.2712 7.08166 12.2948 7.2598L12.814 11.1709C12.8463 11.4144 12.7971 11.6619 12.6741 11.8741C12.0852 12.8911 11.6738 13.6242 11.4408 14.0736C11.1413 14.653 10.726 15.5273 10.1958 16.6973C10.1639 16.786 10.1056 16.8626 10.0289 16.9168C9.95225 16.9709 9.8609 17 9.76727 17C8.04917 17 8.47693 15.0859 9.20891 12.608H6.69079C5.12362 12.608 4.77484 11.2521 5.12362 10.1957L6.08551 7.33627C6.3514 6.53609 7.12169 5.94166 7.95689 6.00631ZM15.5621 6C15.6196 6 15.6767 6.01145 15.7298 6.03368C15.783 6.05592 15.8313 6.08851 15.872 6.12959C15.9127 6.17066 15.9449 6.21943 15.9669 6.27308C15.9889 6.32673 16.0001 6.38423 16 6.44227L15.9922 11.6297C15.9922 11.7468 15.946 11.8591 15.8639 11.9419C15.7818 12.0247 15.6704 12.0712 15.5542 12.0712H14.6143C14.5072 12.0712 14.4038 12.0316 14.3237 11.96C14.2436 11.8884 14.1923 11.7897 14.1794 11.6825L13.5562 6.49509C13.5486 6.43304 13.5543 6.37009 13.5727 6.3104C13.5911 6.25071 13.6219 6.19563 13.663 6.14883C13.7041 6.10203 13.7546 6.06456 13.8111 6.0389C13.8677 6.01324 13.929 5.99998 13.991 6H15.5621Z" fill="white"/>
</svg>

<svg xmlns="http://www.w3.org/2000/svg" width="21" height="21" fill="none" ><rect width="21" height="21" rx="10.5" fill="#eb5757"/><path d="M7.957 6.006l3.644.544a.82.82 0 0 1 .465.238.83.83 0 0 1 .229.472l.519 3.911a1.11 1.11 0 0 1-.14.703l-1.233 2.2-1.245 2.624a.46.46 0 0 1-.167.22c-.077.054-.168.083-.262.083-1.718 0-1.29-1.914-.558-4.392H6.691c-1.567 0-1.916-1.356-1.567-2.412l.962-2.859c.266-.8 1.036-1.395 1.871-1.33zM15.562 6c.058 0 .115.011.168.034a.44.44 0 0 1 .237.239c.022.054.033.111.033.169l-.008 5.187c0 .117-.046.229-.128.312s-.193.129-.31.129h-.94c-.107 0-.21-.04-.291-.111s-.131-.17-.144-.278l-.623-5.187c-.008-.062-.002-.125.016-.185s.049-.115.09-.162a.44.44 0 0 1 .148-.11c.057-.026.118-.039.18-.039h1.571z" fill="#fff"/></svg>
